X:1
T:Living for Jesus
T:Sylvester Main
T:Living for Jesus
T:Public Domain
T:Public Domain
T:Public Domain
C:Sylvester Main
Z:Public Domain
%%score ( 1 2 ) ( 3 4 )
L:1/8
M:4/4
K:Ab
V:1 treble 
V:2 treble 
V:3 bass 
V:4 bass 
V:1
 [CE]2 [DF]>[CE] [Ec]2 [CA]2 | [FB]2 (B/A/)[DF] [DF]2 [CE]2 | E2 [DF][DG] [CA]2 [Ec]2 | %3
w: 1.~Liv- ing for Je- sus,|on- ly * for Je- sus,|ing in wis- dom dai-|
w: 2.~Liv- ing for Je- sus,|on- ly * for Je- sus,|ways for- giv- ing, gen-|
w: 3.~Liv- ing for Je- sus,|on- ly * for Je- sus—|èd em- ploy- ment, bless-|
 [Ec]2 (c/B/)[_DA] [EB]4 | [CE]2 [DF]>[CE] [Ec]2 [CA]2 | [FA]2 [EG][DF] [DF]2 [CE]2 | %6
w: to grow, * Tell- ing|good- ness, seek- ing His|glo- ry, On- ward to|
w: and mild; * Pa- tient|la- bor, trust- ing His|prom- ise, Learn- ing my|
w: re- ward! * Crowns in|king- dom wait for the|faith- ful; There shall the|
 [Ec]2 [Ec]>[Ec] [Ec]2 [CA]2 | [DB]2 [DB]>[Ec] [CA]4 | [Ae]2 [Ae]>[Ae] [Ae]2 [Ec]2 | %9
w: Ca- naan, joy- ful I|go; Doubts may be-|fall me, tri- als op-|
w: du- ty, meek as a|child; When I am|hun- gry, Je- sus will|
w: wear- y rest in the|Lord; Wel- come, O|wel- come toil and af-|
 [Ec]2 [Fd]>[Ec] [Ec]2 [EB]2 | [Ee]2 [Ee]>[Ee] [Ee]2 [Ec]2 | [EA]2 [=DB][Dc] [EB]4 | %12
w: press me, He is my|Buck- ler, strong to de-|fend; Bright is the|
w: feed me, He is my|Shep- herd, He is my|Guide; When I am|
w: flict- ion! He is my|An- chor stead- fast and|sure; Glor- y to|
 [Ec]2 [Ec]>[DB] [CA]2 E2 | [DF]2 [Ed]>[Ec] [Ec]2 [EB]2 | [Ec]2 [CA]>E [DF]2 [FB]2 | %15
w: pros- pect, plea- sant the|ney; Je- sus will lead|me safe to the end.|
w: thirst- y, He will re-|me, All that is need-|ful He will pro- vide.|
w: Je- sus, glor- y to|sus! I shall be- hold|Him, spot- less and pure.|
 [EB]2 [EA]>[DG] [CA]4 ||"^Refrain" [CE]>[CE] [DF][CE] [CE]2 [CA]2 | %17
w: ||
w: the love of Je-|sus! Won- drous love of Je-|
w: ||
 [EB]>[EB] [Ee][Ec] [Ec]2 [EB]2 | [Ee]2 [Ee]>[Ee] [Ee]2 [Ec][EA] | [Ec]2 [DB]2 [CA]4 |] %20
w: |||
w: sus! I will ex- alt Him|for- ev- er- more. * *||
w: |||
V:2
 x8 | x2 F x5 | E2 x6 | x2 =D x5 | x8 | x8 | x8 | x8 | x8 | x8 | x8 | x8 | x6 E2 | x8 | %14
w: |Striv-|ly|His|||||||||jour-||
w: |Al-|tle|in|||||||||fresh||
w: |Bless-|èd|His|||||||||Je-||
 x7/2 E/ x4 | x8 || x8 | x8 | x8 | x8 |] %20
w: ||||||
w: O||||||
w: ||||||
V:3
 [A,,A,]2 [A,,A,]>[A,,A,] [A,,A,]2 [A,,A,]2 | [D,A,]2 [D,A,][D,A,] [A,,A,]2 [A,,A,]2 | %2
 [C,A,]2 [D,A,][B,,E,] [A,,E,]2 [A,,A,]2 | A,2 [F,B,][F,B,] [E,G,]4 | A,2 A,>A, A,2 [A,,A,]2 | %5
 [D,A,]2 [D,A,][D,A,] [A,,A,]2 [A,,A,]2 | [A,,A,]2 [C,A,]>[E,A,] A,2 [A,,A,]2 | %7
 [E,G,]2 [E,G,]>[E,G,] [A,,A,]4 | [A,C]2 [A,C]>[A,C] [A,C]2 A,2 | %9
 [A,,A,]2 [A,,A,]>[A,,A,] [E,A,]2 [E,G,]2 | [E,G,]2 [F,A,]>[G,B,] [A,C]2 A,2 | %11
 [A,C]2 [F,B,][F,A,] [E,G,]4 | [A,,A,]2 [A,,A,]>[A,,E,] [A,,E,]2 [C,A,]2 | %13
 [D,A,]2 [B,,G,]>[A,,A,] [E,A,]2 [E,G,]2 | A,2 A,>[C,A,] [D,A,]2 [B,,D]2 | %15
 [E,D]2 [E,C]>[E,B,] [A,,A,]4 || [A,,A,]>[A,,A,] [A,,A,][A,,A,] [A,,A,]2 [A,,E,]2 | %17
 [E,G,]>[E,G,] [C,A,][A,,A,] [E,A,]2 [E,G,]2 | [E,G,]2 [F,A,]>[G,B,] [A,C]2 A,[C,A,] | %19
 [E,A,]2 [E,G,]2 [A,,A,]4 |] %20
V:4
 x8 | x8 | x8 | A,2 x6 | A,2 A,>A, A,2 x2 | x8 | x4 A,2 x2 | x8 | x6 A,2 | x8 | x6 A,2 | x8 | x8 | %13
 x8 | A,2 A,3/2 x9/2 | x8 || x8 | x8 | x6 A, x | x8 |] %20

